src/assets/icons/atom.svg

<svg fill="none" height="48" viewBox="0 0 48 48" width="48" xmlns="http://www.w3.org/2000/svg"><g fill="#1c253d"><path d="m32.3066 15.6133c-1.8939-1.8961-3.931-3.6434-6.0933-5.2266 1.4789-.89465 3.0311-1.66186 4.64-2.29337.4267-.16.8267-.28 1.2267-.4.3245.39267.7426.69748 1.2157.88642.4731.18895.9861.25597 1.4919.1949.5057-.06106.988-.24825 1.4026-.54436.4145-.29612.748-.69166.9698-1.15029.9521.08621 1.8505.47925 2.56 1.12 1.5866 1.58667 1.6266 4.7867.1333 8.7733.6533.8667 1.2533 1.7467 1.8 2.6667.2267-.5333.4667-1.0533.6533-1.5733 1.96-5.1334 1.7067-9.33337-.7066-11.7067-1.2074-1.14337-2.78-1.82339-4.44-1.92-.277-.57739-.7285-1.05308-1.2907-1.35979-.5621-.3067-1.2065-.42889-1.8419-.34928-.6354.07962-1.2297.357-1.6988.79291s-.7893 1.00829-.9153 1.63616c-.4933.14667-.9867.29333-1.5067.49333-2.1303.83898-4.1716 1.88864-6.0933 3.13334-1.9256-1.26073-3.9711-2.32814-6.1067-3.18667-5.1333-1.94667-9.33329-1.70667-11.69329.70667-2.21334 2.22666-2.57334 5.92003-1.10667 10.48003-.33475.4304-.54756.943-.61613 1.4839-.06856.541.00964 1.0905.22641 1.5908.21678.5004.56414.9332 1.0057 1.2532.44155.3199.96104.5152 1.50402.5654.42667.8133.89333 1.6267 1.41333 2.4267-1.23821 1.9259-2.27904 3.9718-3.10666 6.1066-1.96 5.12-1.70667 9.3334.70666 11.6934.73425.6862 1.59883 1.218 2.54245 1.5638.94362.3459 1.94708.4987 2.95088.4495 2.1299-.0695 4.2299-.5211 6.2-1.3333 2.1334-.8416 4.1789-1.8911 6.1067-3.1334 1.9099 1.2708 3.9423 2.3473 6.0666 3.2134 1.5617.6145 3.1984 1.018 4.8667 1.2.2929.6227.7866 1.1288 1.4019 1.437.6153.3081 1.3164.4004 1.9905.2619.6741-.1386 1.2819-.4998 1.7259-1.0255.4439-.5258.6981-1.1857.7217-1.8734.3541-.2188.6847-.4735.9867-.76 2.4133-2.4134 2.6666-6.5734.7066-11.6934-2.2996-5.4994-5.7031-10.4685-10-14.6zm-15.5466 24.5067c-4 1.5333-7.26669 1.5067-8.86669-.1067-1.6-1.6133-1.64-4.8266-.09334-8.8533.62669-1.6087 1.38946-3.161 2.28003-4.64 1.5879 2.1543 3.335 4.1867 5.2266 6.08.5734.5733 1.16 1.1333 1.7467 1.6667.8-.4089 1.6133-.8756 2.44-1.4-.7733-.6934-1.5467-1.3334-2.2933-2.1467-3.001-2.9488-5.5768-6.3009-7.65336-9.96.41702-.4322.69726-.9778.80576-1.5686.1085-.5907.0404-1.2003-.1959-1.7525-.23623-.5521-.63008-1.0224-1.13225-1.3519-.50217-.3294-1.09035-.5035-1.69094-.5003-1-3.3334-.82667-5.9867.57333-7.3867.49308-.43455 1.06762-.76677 1.69021-.97735.62255-.21058 1.28085-.29533 1.93645-.24932 1.7992.06009 3.5734.43932 5.24 1.12 1.6089.63151 3.1612 1.39872 4.64 2.29337-2.1623 1.5832-4.1994 3.3305-6.0933 5.2266-.5867.5867-1.16 1.2-1.72 1.8134.4014.8447.8465 1.668 1.3333 2.4666.72-.8133 1.4533-1.6133 2.24-2.4 2.0513-2.0491 4.2825-3.9099 6.6667-5.56 2.3587 1.6564 4.5672 3.5169 6.6 5.56 2.0495 2.051 3.9103 4.2823 5.56 6.6667-1.6539 2.3813-3.5144 4.6121-5.56 6.6667-3.8797 3.9968-8.5349 7.1592-13.68 9.2933zm22.96-.12-.2134.1733c-.3501-.2968-.7632-.5101-1.2079-.6237s-.9095-.1246-1.359-.0321c-.4496.0925-.8723.286-1.2361.566-.3637.2799-.6591.6389-.8636 1.0498-1.3706-.176-2.7141-.5208-4-1.0266-1.6112-.6263-3.164-1.3937-4.64-2.2934 2.1623-1.5831 4.1994-3.3305 6.0933-5.2266 1.899-1.8864 3.6467-3.9194 5.2267-6.08.8945 1.4789 1.6617 3.0311 2.2933 4.64 1.52 4.04 1.52 7.2666-.0933 8.8533z"/><path d="m24.6953 28.4287c2.3986-.3894 4.0275-2.6495 3.6381-5.0482-.3893-2.3986-2.6494-4.0275-5.0481-3.6381-2.3987.3893-4.0275 2.6495-3.6382 5.0481.3894 2.3987 2.6495 4.0275 5.0482 3.6382z"/></g></svg>

<svg width="48" height="48" viewBox="0 0 48 48" fill="none" xmlns="http://www.w3.org/2000/svg">
<path d="M32.3066 15.6133C30.4127 13.7172 28.3756 11.9699 26.2133 10.3867C27.6922 9.49205 29.2444 8.72484 30.8533 8.09333C31.28 7.93333 31.68 7.81333 32.08 7.69333C32.4045 8.086 32.8226 8.39081 33.2957 8.57975C33.7688 8.7687 34.2818 8.83572 34.7876 8.77465C35.2933 8.71359 35.7756 8.5264 36.1902 8.23029C36.6047 7.93417 36.9382 7.53863 37.16 7.08C38.1121 7.16621 39.0105 7.55925 39.72 8.2C41.3066 9.78667 41.3466 12.9867 39.8533 16.9733C40.5066 17.84 41.1066 18.72 41.6533 19.64C41.88 19.1067 42.12 18.5867 42.3066 18.0667C44.2666 12.9333 44.0133 8.73333 41.6 6.36C40.3926 5.21663 38.82 4.53661 37.16 4.44C36.883 3.86261 36.4315 3.38692 35.8693 3.08021C35.3072 2.77351 34.6628 2.65132 34.0274 2.73093C33.392 2.81055 32.7977 3.08793 32.3286 3.52384C31.8595 3.95975 31.5393 4.53213 31.4133 5.16C30.92 5.30667 30.4266 5.45333 29.9066 5.65333C27.7763 6.49231 25.735 7.54197 23.8133 8.78667C21.8877 7.52594 19.8422 6.45853 17.7066 5.6C12.5733 3.65333 8.37331 3.89333 6.01331 6.30667C3.79997 8.53333 3.43997 12.2267 4.90664 16.7867C4.57189 17.2171 4.35908 17.7297 4.29051 18.2706C4.22195 18.8116 4.30015 19.3611 4.51692 19.8614C4.7337 20.3618 5.08106 20.7946 5.52262 21.1146C5.96417 21.4345 6.48366 21.6298 7.02664 21.68C7.45331 22.4933 7.91997 23.3067 8.43997 24.1067C7.20176 26.0326 6.16093 28.0785 5.33331 30.2133C3.37331 35.3333 3.62664 39.5467 6.03997 41.9067C6.77422 42.5929 7.6388 43.1247 8.58242 43.4705C9.52604 43.8164 10.5295 43.9692 11.5333 43.92C13.6632 43.8505 15.7632 43.3989 17.7333 42.5867C19.8667 41.7451 21.9122 40.6956 23.84 39.4533C25.7499 40.7241 27.7823 41.8006 29.9066 42.6667C31.4683 43.2812 33.105 43.6847 34.7733 43.8667C35.0662 44.4894 35.5599 44.9955 36.1752 45.3037C36.7905 45.6118 37.4916 45.7041 38.1657 45.5656C38.8398 45.427 39.4476 45.0658 39.8916 44.5401C40.3355 44.0143 40.5897 43.3544 40.6133 42.6667C40.9674 42.4479 41.298 42.1932 41.6 41.9067C44.0133 39.4933 44.2666 35.3333 42.3066 30.2133C40.007 24.7139 36.6035 19.7448 32.3066 15.6133V15.6133ZM16.76 40.12C12.76 41.6533 9.49331 41.6267 7.89331 40.0133C6.29331 38.4 6.25331 35.1867 7.79997 31.16C8.42666 29.5513 9.18943 27.999 10.08 26.52C11.6679 28.6743 13.415 30.7067 15.3066 32.6C15.88 33.1733 16.4666 33.7333 17.0533 34.2667C17.8533 33.8578 18.6666 33.3911 19.4933 32.8667C18.72 32.1733 17.9466 31.5333 17.2 30.72C14.199 27.7712 11.6232 24.4191 9.54664 20.76C9.96366 20.3278 10.2439 19.7822 10.3524 19.1914C10.4609 18.6007 10.3928 17.9911 10.1565 17.4389C9.92027 16.8868 9.52642 16.4165 9.02425 16.087C8.52208 15.7576 7.9339 15.5835 7.33331 15.5867C6.33331 12.2533 6.50664 9.6 7.90664 8.2C8.39972 7.76545 8.97426 7.43323 9.59685 7.22265C10.2194 7.01207 10.8777 6.92732 11.5333 6.97333C13.3325 7.03342 15.1067 7.41265 16.7733 8.09333C18.3822 8.72484 19.9345 9.49205 21.4133 10.3867C19.251 11.9699 17.2139 13.7172 15.32 15.6133C14.7333 16.2 14.16 16.8133 13.6 17.4267C14.0014 18.2714 14.4465 19.0947 14.9333 19.8933C15.6533 19.08 16.3866 18.28 17.1733 17.4933C19.2246 15.4442 21.4558 13.5834 23.84 11.9333C26.1987 13.5897 28.4072 15.4502 30.44 17.4933C32.4895 19.5443 34.3503 21.7756 36 24.16C34.3461 26.5413 32.4856 28.7721 30.44 30.8267C26.5603 34.8235 21.9051 37.9859 16.76 40.12V40.12ZM39.72 40L39.5066 40.1733C39.1565 39.8765 38.7434 39.6632 38.2987 39.5496C37.854 39.436 37.3892 39.425 36.9397 39.5175C36.4901 39.61 36.0674 39.8035 35.7036 40.0835C35.3399 40.3634 35.0445 40.7224 34.84 41.1333C33.4694 40.9573 32.1259 40.6125 30.84 40.1067C29.2288 39.4804 27.676 38.713 26.2 37.8133C28.3623 36.2302 30.3994 34.4828 32.2933 32.5867C34.1923 30.7003 35.94 28.6673 37.52 26.5067C38.4145 27.9856 39.1817 29.5378 39.8133 31.1467C41.3333 35.1867 41.3333 38.4133 39.72 40Z" fill="#1C253D"/>
<path d="M24.6953 28.4287C27.0939 28.0393 28.7228 25.7792 28.3334 23.3805C27.9441 20.9819 25.684 19.353 23.2853 19.7424C20.8866 20.1317 19.2578 22.3919 19.6471 24.7905C20.0365 27.1892 22.2966 28.818 24.6953 28.4287Z" fill="#1C253D"/>
</svg>
